src/assets/duotone/DocumentSketch.svg

<svg width="24" height="24" viewBox="0 0 24 24"  xmlns="http://www.w3.org/2000/svg">
<path opacity="0.4" d="M20.5 10.19H17.61C15.24 10.19 13.31 8.26 13.31 5.89V3C13.31 2.45 12.86 2 12.31 2H8.07C4.99 2 2.5 4 2.5 7.57V16.43C2.5 20 4.99 22 8.07 22H15.93C19.01 22 21.5 20 21.5 16.43V11.19C21.5 10.64 21.05 10.19 20.5 10.19Z" />
<path d="M15.8002 2.21048C15.3902 1.80048 14.6802 2.08048 14.6802 2.65048V6.14048C14.6802 7.60048 15.9202 8.81048 17.4302 8.81048C18.3802 8.82048 19.7002 8.82048 20.8302 8.82048C21.4002 8.82048 21.7002 8.15048 21.3002 7.75048C19.8602 6.30048 17.2802 3.69048 15.8002 2.21048Z" />
<path d="M12.5501 14.0002L11.7001 12.7202C11.4901 12.3902 11.0501 12.1602 10.6601 12.1602H8.64011C8.25011 12.1602 7.82011 12.3902 7.60011 12.7202L6.75011 14.0002C6.42011 14.4802 6.49011 15.1702 6.90011 15.5802L8.76011 17.4402C9.00011 17.6702 9.32011 17.8002 9.65011 17.8002C9.98011 17.8002 10.3001 17.6702 10.5401 17.4402L12.4001 15.5802C12.8001 15.1702 12.8601 14.4802 12.5501 14.0002Z" />
</svg>

<?xml version="1.0" encoding="UTF-8"?>
<svg width="24" height="24" viewBox="0 0 24 24" xmlns="http://www.w3.org/2000/svg">
 <path d="m20.5 10.19h-2.89c-2.37 0-4.3-1.93-4.3-4.3v-2.89c0-0.55-0.45-1-1-1h-4.24c-3.08 0-5.57 2-5.57 5.57v8.86c0 3.57 2.49 5.57 5.57 5.57h7.86c3.08 0 5.57-2 5.57-5.57v-5.24c0-0.55-0.45-1-1-1z" opacity=".4"/>
 <path d="m15.8 2.2105c-0.41-0.41-1.12-0.13-1.12 0.44v3.49c0 1.46 1.24 2.67 2.75 2.67 0.95 0.01 2.27 0.01 3.4 0.01 0.57 0 0.87-0.67 0.47-1.07-1.44-1.45-4.02-4.06-5.5-5.54z"/>
 <path d="m12.55 14-0.85-1.28c-0.21-0.33-0.65-0.56-1.04-0.56h-2.02c-0.39 0-0.82 0.23-1.04 0.56l-0.85 1.28c-0.33 0.48-0.26 1.17 0.15 1.58l1.86 1.86c0.24 0.23 0.56 0.36 0.89 0.36s0.64999-0.13 0.88999-0.36l1.86-1.86c0.4-0.41 0.46-1.1 0.15-1.58z"/>
</svg>
